X:136
T:Waterloo Dance,The. RHu.136
S:R.Hughes MS,1823,Whitchurch,Shrops.
A:Whitchurch, Shropshire
Z:Tony Weatherall 2006
N:Repeats inconsistent in MS
M:2/4
L:1/8
Q:1/4=100
R:Country Dance
K:D
A/G/|Fd/B/ Af/e/|ddd c/d/|ee d/c/B/A/|d/c/d/e/ f/d/B/G/|!
Fd/B/ Af/e/|ddd c/d/|ee d/c/B/c/|df d:|!
|:c/d/|ec/e/ aa/f/|ee/c/ Ac|d/c/B/A/ G/f/e/d/|d2cc/d/|!
ec/e/ aa/f/|ee/c/|Ac/A/|G/A/B/c/ dG|Ac A||!
f/g/|a3f|bagf|ee e/d/e/f/|defg|!
a3f|bagf|ee e/d/e/f/|ded:|

